X:2203
T:My shenn ayr 
T:My ancient (grand)father
C:Traditional
O:Isle of Man
Z:Clague Colection
B:Kiaull Vannin #203 
L:1/8
M:3/8 
Q:160 
K:D 
F|BBB|ABc|dcB|cF F|BBB|ABc|df^e|f2 f/g/| 
agf|B2 A/A/|BcB|AG F|BBB|ABc|dec|B2|| 

